static/fa/svgs/solid/motorcycle.svg

<svg xmlns="http://www.w3.org/2000/svg" viewBox="0 0 640 512"><!--! Font Awesome Free 6.1.1 by @fontawesome - https://fontawesome.com License - https://fontawesome.com/license/free (Icons: CC BY 4.0, Fonts: SIL OFL 1.1, Code: MIT License) Copyright 2022 Fonticons, Inc.--><path d="M342.5 32c14.7 0 28.2 8.05 35.1 20.98l14.1 25.95 47.4-39.51c5.8-4.8 13-7.42 20.5-7.42H480c17.7 0 32 14.33 32 32v32c0 17.7-14.3 32-32 32h-61.8l55.1 101.1c12.2-3 25.2-5.1 38.7-5.1 70.7 0 128 57.3 128 128s-57.3 128-128 128-128-57.3-128-128c0-40.9 18.4-75.7 47.1-99.2l-15.4-28.6C376.1 253.4 352 299.8 352 352c0 10.1 1.1 21.7 3.2 32h-70.4c2.1-10.3 2.3-21.9 2.3-32 0-88.4-70.7-160-160-160h-96v-32c0-17.7 15.23-32 32-32h102.4c17 0 33.2 6.7 45.2 18.7l44.4 45.3 99-81.7L337.7 80h-58.6c-12.4 0-24-10.75-24-24s11.6-24 24-24h63.4zM448 352c0 35.3 28.7 64 64 64s64-28.7 64-64-28.7-64-64-64c-2.4 0-4.8.1-7.1.4l28.2 52.2c6.3 11.6 2 26.2-9.7 32.5-11.6 6.3-26.2 2-32.5-9.7l-28.2-52.2c-9.2 11.1-14.7 25.3-14.7 40.8zm-194.2 24c-11.3 59.2-63.3 104-125.8 104C57.31 480 0 422.7 0 352s57.31-128 128-128c62.5 0 114.5 44.8 125.8 104h-66.5c-9.4-23.5-32.4-40-59.3-40-35.35 0-64 28.7-64 64s28.65 64 64 64c26.9 0 49.9-16.5 59.3-40h66.5zM96 352c0-17.7 14.3-32 32-32s32 14.3 32 32-14.3 32-32 32-32-14.3-32-32z"/></svg>

<svg xmlns="http://www.w3.org/2000/svg" viewBox="0 0 640 512"><!--! Font Awesome Free 6.1.1 by @fontawesome - https://fontawesome.com License - https://fontawesome.com/license/free (Icons: CC BY 4.0, Fonts: SIL OFL 1.1, Code: MIT License) Copyright 2022 Fonticons, Inc. --><path d="M342.5 32C357.2 32 370.7 40.05 377.6 52.98L391.7 78.93L439.1 39.42C444.9 34.62 452.1 32 459.6 32H480C497.7 32 512 46.33 512 64V96C512 113.7 497.7 128 480 128H418.2L473.3 229.1C485.5 226.1 498.5 224 512 224C582.7 224 640 281.3 640 352C640 422.7 582.7 480 512 480C441.3 480 384 422.7 384 352C384 311.1 402.4 276.3 431.1 252.8L415.7 224.2C376.1 253.4 352 299.8 352 352C352 362.1 353.1 373.7 355.2 384H284.8C286.9 373.7 287.1 362.1 287.1 352C287.1 263.6 216.4 192 127.1 192H31.1V160C31.1 142.3 46.33 128 63.1 128H165.5C182.5 128 198.7 134.7 210.7 146.7L255.1 192L354.1 110.3L337.7 80H279.1C266.7 80 255.1 69.25 255.1 56C255.1 42.75 266.7 32 279.1 32L342.5 32zM448 352C448 387.3 476.7 416 512 416C547.3 416 576 387.3 576 352C576 316.7 547.3 288 512 288C509.6 288 507.2 288.1 504.9 288.4L533.1 340.6C539.4 352.2 535.1 366.8 523.4 373.1C511.8 379.4 497.2 375.1 490.9 363.4L462.7 311.2C453.5 322.3 448 336.5 448 352V352zM253.8 376C242.5 435.2 190.5 480 128 480C57.31 480 0 422.7 0 352C0 281.3 57.31 224 128 224C190.5 224 242.5 268.8 253.8 328H187.3C177.9 304.5 154.9 288 128 288C92.65 288 64 316.7 64 352C64 387.3 92.65 416 128 416C154.9 416 177.9 399.5 187.3 376H253.8zM96 352C96 334.3 110.3 320 128 320C145.7 320 160 334.3 160 352C160 369.7 145.7 384 128 384C110.3 384 96 369.7 96 352z"/></svg>
